X: 1
T:Chorus Jig
N: abc version by Robert Bley-Vroman, Contradancers of Hawaii, July 1996
N: http://www.lll.hawaii.edu/contra/
M:2/2
L:1/8
P:ABCB
K:D
P: A
AG | F2 DF ABAG | FADF A2 d2 | D3 F ABAF | GFEF G2 AG |
     F2 DF ABAG | FADF A2 d2 | D3 F ABAF | GFEF G2 B=c ||
P:B
K:G
     dBcA BGFG | Ad^cd A2 B=c| dBcA BGFG | AcBA G2 Bc |
     dBcA BGFG | ABcd   efge | dBcA BGFG | AcBA G2 ag ||
P:C
K:D
     fddd fddd | fdfg abag | fddd fddd | edef g2 ag  |
     fddd fddd | fdfg abag | fddd fddd | edef g2 B=c ||
